chrome/icons/bug.svg

<svg xmlns="http://www.w3.org/2000/svg" viewBox="0 0 24 24"><path d="M13 19.9C15.2822 19.4367 17 17.419 17 15V12C17 11.299 16.8564 10.6219 16.5846 10H7.41538C7.14358 10.6219 7 11.299 7 12V15C7 17.419 8.71776 19.4367 11 19.9V14H13V19.9ZM5.5358 17.6907C5.19061 16.8623 5 15.9534 5 15H2V13H5V12C5 11.3573 5.08661 10.7348 5.2488 10.1436L3.0359 8.86602L4.0359 7.13397L6.05636 8.30049C6.11995 8.19854 6.18609 8.09835 6.25469 8H17.7453C17.8139 8.09835 17.88 8.19854 17.9436 8.30049L19.9641 7.13397L20.9641 8.86602L18.7512 10.1436C18.9134 10.7348 19 11.3573 19 12V13H22V15H19C19 15.9534 18.8094 16.8623 18.4642 17.6907L20.9641 19.134L19.9641 20.866L17.4383 19.4077C16.1549 20.9893 14.1955 22 12 22C9.80453 22 7.84512 20.9893 6.56171 19.4077L4.0359 20.866L3.0359 19.134L5.5358 17.6907ZM8 6C8 3.79086 9.79086 2 12 2C14.2091 2 16 3.79086 16 6H8Z" fill="rgba(255,255,255,1)"></path></svg>

<svg xmlns="http://www.w3.org/2000/svg" viewBox="0 0 24 24" width="24" height="24"><path fill="none" d="M0 0h24v24H0z"/><path d="M6.056 8.3a7.01 7.01 0 0 1 .199-.3h11.49c.069.098.135.199.199.3l2.02-1.166 1 1.732-2.213 1.278c.162.59.249 1.213.249 1.856v1h3v2h-3c0 .953-.19 1.862-.536 2.69l2.5 1.444-1 1.732-2.526-1.458A6.992 6.992 0 0 1 13 21.929V14h-2v7.93a6.992 6.992 0 0 1-4.438-2.522l-2.526 1.458-1-1.732 2.5-1.443A6.979 6.979 0 0 1 5 15H2v-2h3v-1c0-.643.087-1.265.249-1.856L3.036 8.866l1-1.732L6.056 8.3zM8 6a4 4 0 1 1 8 0H8z" fill="context-fill" fill-opacity="context-fill-opacity"/></svg>
